X:295
T:Shepton Mallet Hornpipe
M:2/2
L:1/8
K:G
G2 Bc d2 B2 | c2 e2 d4 | G2 Bc d2 B2 | c2 e2 A4 |
G2 Bc d2 B2 | c2 e2 d4 | g2 B2 cedc | B2 A2 G4 :|
g2 g2 gagf | e2 c2 c4 | a2 a2 abag | f2 d2 d2 ef |
gfgf e2 a2 | fgfe d2 ef | g2 B2 cedc | B2 A2 G4 :|
